svg/fluentui-system-icons/ic_fluent_text_underline_24_regular.svg

<svg width="24" height="24" viewBox="0 0 24 24" fill="none" xmlns="http://www.w3.org/2000/svg">
<path d="M12 4C12.3036 4 12.5773 4.18306 12.6932 4.46368L17.4432 15.9637C17.6013 16.3465 17.4192 16.7851 17.0363 16.9432C16.6535 17.1013 16.2149 16.9192 16.0568 16.5363L14.5962 13H9.40386L7.94321 16.5363C7.78508 16.9192 7.34653 17.1013 6.96369 16.9432C6.58085 16.7851 6.39869 16.3465 6.55682 15.9637L11.3068 4.46368C11.4227 4.18306 11.6964 4 12 4ZM10.0234 11.5H13.9766L12 6.71458L10.0234 11.5ZM17.3 18.5C17.7 18.5 18.1 18.8 18.1 19.3C18.1 19.7 17.8 20 17.5 20H6.8C6.4 20 6 19.7 6 19.2C6 18.8 6.3 18.5 6.6 18.5H17.3Z" fill="#212121"/>
</svg>

<svg xmlns="http://www.w3.org/2000/svg" width="24" height="24"><path d="M12 4a.75.75 0 0 1 .693.464l4.75 11.5a.75.75 0 1 1-1.386.572L14.597 13H9.403l-1.46 3.536a.75.75 0 1 1-1.387-.572l4.75-11.5A.75.75 0 0 1 12 4Zm-1.977 7.5h3.954L12 6.715 10.023 11.5Zm7.277 7c.4 0 .8.3.8.8 0 .4-.3.7-.6.7H6.8c-.4 0-.8-.3-.8-.8 0-.4.3-.7.6-.7h10.7Z"/></svg>
